icons/dark/toml.svg

<svg width="16" height="16" viewBox="0 0 16 16" fill="none" xmlns="http://www.w3.org/2000/svg">
<g clip-path="url(#clip0_6_128)">
<path d="M16 16H12.4209V14.2317H14.0668V1.77688H12.4209V0H16V16ZM11.7464 3.36697V5.22147H8.89762V13.8427H6.89428V5.22147H4.03222V3.36697H11.7464ZM0 0H3.56134V1.76834H1.91547V14.2231H3.56134V16H0V0Z" fill="#C5C5C5"/>
</g>
<defs>
<clipPath id="clip0_6_128">
<rect width="16" height="16" fill="white"/>
</clipPath>
</defs>
</svg>

<svg xmlns="http://www.w3.org/2000/svg" width="16" height="16" fill="none" xmlns:v="https://vecta.io/nano"><g clip-path="url(#A)"><path d="M16 16h-3.579v-1.768h1.646V1.777h-1.646V0H16v16zM11.746 3.367v1.855H8.898v8.621H6.894V5.221H4.032V3.367h7.714zM0 0h3.561v1.768H1.915v12.455h1.646V16H0V0z" fill="#c5c5c5"/></g><defs><clipPath id="A"><path fill="#fff" d="M0 0h16v16H0z"/></clipPath></defs></svg>
